Catalina-dark/actions/22/document-new.svg

<?xml version="1.0" encoding="UTF-8" standalone="no"?>
<svg
   xmlns:dc="http://purl.org/dc/elements/1.1/"
   xmlns:cc="http://creativecommons.org/ns#"
   xmlns:rdf="http://www.w3.org/1999/02/22-rdf-syntax-ns#"
   xmlns:svg="http://www.w3.org/2000/svg"
   xmlns="http://www.w3.org/2000/svg"
   xmlns:sodipodi="http://sodipodi.sourceforge.net/DTD/sodipodi-0.dtd"
   xmlns:inkscape="http://www.inkscape.org/namespaces/inkscape"
   viewBox="0 0 22 22"
   id="svg2"
   version="1.1"
   inkscape:version="0.91 r13725"
   sodipodi:docname="document-new.svg">
  <metadata
     id="metadata10">
    <rdf:RDF>
      <cc:Work
         rdf:about="">
        <dc:format>image/svg+xml</dc:format>
        <dc:type
           rdf:resource="http://purl.org/dc/dcmitype/StillImage" />
      </cc:Work>
    </rdf:RDF>
  </metadata>
  <sodipodi:namedview
     pagecolor="#ffffff"
     bordercolor="#666666"
     borderopacity="1"
     objecttolerance="10"
     gridtolerance="10"
     guidetolerance="10"
     inkscape:pageopacity="0"
     inkscape:pageshadow="2"
     inkscape:window-width="640"
     inkscape:window-height="480"
     id="namedview8"
     showgrid="false"
     inkscape:zoom="28.954545"
     inkscape:cx="4.8524333"
     inkscape:cy="11"
     inkscape:current-layer="svg2" />
  <defs
     id="defs3051">
    <style
       type="text/css"
       id="current-color-scheme">
      .ColorScheme-Text {
        color:#f2f2f2
      }
      </style>
  </defs>
  <path
     style="color:#f2f2f2;fill:currentColor;fill-opacity:1;stroke:none"
     class="ColorScheme-Text"
     d="M 9.666667,3 C 9.420418,3 9.222222,3.1981956 9.222222,3.4444444 l 0,5.7777776 -5.7777776,0 C 3.1982222,9.222222 3,9.420444 3,9.666667 l 0,2.666666 c 0,0.246223 0.1982222,0.444445 0.4444444,0.444445 l 5.7777776,0 0,5.777778 C 9.222222,18.801804 9.420418,19 9.666667,19 l 2.666666,0 c 0.246249,0 0.444445,-0.198196 0.444445,-0.444444 l 0,-5.777778 5.777778,0 C 18.801778,12.777778 19,12.579556 19,12.333333 L 19,9.666667 C 19,9.420444 18.801778,9.222222 18.555556,9.222222 l -5.777778,0 0,-5.7777776 C 12.777778,3.1981956 12.579582,3 12.333333,3 L 9.666667,3 Z"
     id="path6"
     inkscape:connector-curvature="0" />
</svg>

<svg width="22" height="22" version="1.1" viewBox="3 3 16 16" xmlns="http://www.w3.org/2000/svg">
<defs>
<style id="current-color-scheme" type="text/css">.ColorScheme-Text {
        color:#f2f2f2
      }</style>
</defs>
<path class="ColorScheme-Text" d="m9.6667 3c-0.24625 0-0.44444 0.1982-0.44444 0.44444v5.7778h-5.7778c-0.24622 0-0.44444 0.19822-0.44444 0.44444v2.6667c0 0.24622 0.19822 0.44444 0.44444 0.44444h5.7778v5.7778c0 0.24625 0.1982 0.44444 0.44444 0.44444h2.6667c0.24625 0 0.44444-0.1982 0.44444-0.44444v-5.7778h5.7778c0.24622 0 0.44444-0.19822 0.44444-0.44444v-2.6667c0-0.24622-0.19822-0.44444-0.44444-0.44444h-5.7778v-5.7778c0-0.24625-0.1982-0.44444-0.44444-0.44444h-2.6667z" color="#f2f2f2" fill="currentColor"/>
</svg>
